src/lib/packages/icons/src/assets/line/message-edit.svg

<svg width="24" height="24" viewBox="0 0 24 24" fill="none" xmlns="http://www.w3.org/2000/svg">
<path d="M18 2.25H6C3.582 2.25 2.25 3.582 2.25 6V21C2.25 21.303 2.43289 21.577 2.71289 21.693C2.80589 21.732 2.903 21.75 3 21.75C3.195 21.75 3.38703 21.674 3.53003 21.53L6.31006 18.75H18C20.418 18.75 21.75 17.418 21.75 15V6C21.75 3.582 20.418 2.25 18 2.25ZM20.25 15C20.25 16.577 19.577 17.25 18 17.25H6C5.801 17.25 5.60997 17.329 5.46997 17.47L3.75 19.1899V6C3.75 4.423 4.423 3.75 6 3.75H18C19.577 3.75 20.25 4.423 20.25 6V15ZM15.2791 6.22998C14.9691 5.91998 14.5581 5.75 14.1211 5.75C14.1201 5.75 14.1189 5.75 14.1179 5.75C13.6799 5.75 13.268 5.92206 12.96 6.23206L7.46899 11.748C7.32799 11.889 7.25 12.079 7.25 12.277V14.499C7.25 14.913 7.586 15.249 8 15.249H10.2229C10.4209 15.249 10.612 15.17 10.752 15.031L16.2681 9.54004C16.5791 9.23104 16.749 8.81998 16.75 8.38098C16.751 7.94198 16.58 7.52899 16.27 7.21899L15.2791 6.22998ZM14.1201 7.25C14.1461 7.25 14.184 7.25702 14.219 7.29102L15.209 8.28101C15.243 8.31501 15.25 8.354 15.25 8.38C15.25 8.406 15.243 8.44405 15.209 8.47705L14.573 9.11096L13.3899 7.92798L14.0239 7.29102C14.0569 7.25702 14.0951 7.25 14.1201 7.25ZM9.91309 13.75H8.75V12.587L12.3311 8.98999L13.509 10.1689L9.91309 13.75Z" fill="currentColor"/>
</svg>

<svg xmlns="http://www.w3.org/2000/svg" width="24" height="24" fill="none"><path fill="currentColor" d="M18 2.25H6C3.582 2.25 2.25 3.582 2.25 6v15a.75.75 0 0 0 1.28.53l2.78-2.78H18c2.418 0 3.75-1.332 3.75-3.75V6c0-2.418-1.332-3.75-3.75-3.75ZM20.25 15c0 1.577-.673 2.25-2.25 2.25H6a.747.747 0 0 0-.53.22l-1.72 1.72V6c0-1.577.673-2.25 2.25-2.25h12c1.577 0 2.25.673 2.25 2.25v9Zm-4.97-8.77c-.31-.31-.722-.48-1.159-.48h-.003c-.438 0-.85.172-1.158.482l-5.491 5.516a.747.747 0 0 0-.219.529v2.222c0 .414.336.75.75.75h2.223a.753.753 0 0 0 .529-.218l5.516-5.491c.311-.309.481-.72.482-1.159a1.628 1.628 0 0 0-.48-1.162l-.99-.989Zm-1.16 1.02a.14.14 0 0 1 .099.041l.99.99a.138.138 0 0 1 0 .196l-.636.634-1.183-1.183.634-.637a.132.132 0 0 1 .096-.041Zm-4.207 6.5H8.75v-1.163l3.581-3.597 1.178 1.179-3.596 3.581Z"/></svg>
